assets/icons/qvision/app_blocking.svg

<svg xmlns="http://www.w3.org/2000/svg" height="24" viewBox="0 0 24 24" width="24"><path d="M0 0h24v24H0z" fill="none"/><path d="M18 8c-2.21 0-4 1.79-4 4s1.79 4 4 4 4-1.79 4-4-1.79-4-4-4zm-2.5 4c0-1.38 1.12-2.5 2.5-2.5.42 0 .8.11 1.15.29l-3.36 3.36c-.18-.35-.29-.73-.29-1.15zm2.5 2.5c-.42 0-.8-.11-1.15-.29l3.36-3.36c.18.35.29.73.29 1.15 0 1.38-1.12 2.5-2.5 2.5zM17 18H7V6h10v1h2V3c0-1.1-.9-2-2-2H7c-1.1 0-2 .9-2 2v18c0 1.1.9 2 2 2h10c1.1 0 2-.9 2-2v-4h-2v1z"/></svg>

<svg width="24" height="24" viewBox="0 0 24 24" fill="none" xmlns="http://www.w3.org/2000/svg">
<g clip-path="url(#clip0_147_3887)">
<path d="M18 8C15.79 8 14 9.79 14 12C14 14.21 15.79 16 18 16C20.21 16 22 14.21 22 12C22 9.79 20.21 8 18 8ZM15.5 12C15.5 10.62 16.62 9.5 18 9.5C18.42 9.5 18.8 9.61 19.15 9.79L15.79 13.15C15.61 12.8 15.5 12.42 15.5 12ZM18 14.5C17.58 14.5 17.2 14.39 16.85 14.21L20.21 10.85C20.39 11.2 20.5 11.58 20.5 12C20.5 13.38 19.38 14.5 18 14.5ZM17 18H7V6H17V7H19V3C19 1.9 18.1 1 17 1H7C5.9 1 5 1.9 5 3V21C5 22.1 5.9 23 7 23H17C18.1 23 19 22.1 19 21V17H17V18Z" fill="#323232"/>
</g>
<defs>
<clipPath id="clip0_147_3887">
<rect width="24" height="24" fill="white"/>
</clipPath>
</defs>
</svg>
